X:48
T:Zavaros a Tisza...
O: Válaszút
M:4/4
L:1/4
K:Bb
B<B c<c | G2 F z | 
d<B d g | d2 d z | 
f f g g | f<d Bc | 
d g d<c | G2 G z | 

